X:80
T:score169
L:1/8
Q:1/4=96
M:3/4
I:linebreak $
K:Cmin
 c3 z/ (G/ e>c | g>e c'>g .e'2) | .e'2 z2 c2 | (c4 =B2) |$ =B3 z/ (B/ f>d | =b>f d'>b .f'2) | %6
 .f'2 z2 d2 | (d4 c2) |] %8
